packages/icons/src/dropdown-menu.svg

<svg width="15" height="15" viewBox="0 0 15 15" fill="none" xmlns="http://www.w3.org/2000/svg">
  <path
    fill-rule="evenodd"
    clip-rule="evenodd"
    d="M7.49999 3.09998C7.27907 3.09998 7.09999 3.27906 7.09999 3.49998C7.09999 3.72089 7.27907 3.89998 7.49999 3.89998H14.5C14.7209 3.89998 14.9 3.72089 14.9 3.49998C14.9 3.27906 14.7209 3.09998 14.5 3.09998H7.49999ZM7.49998 5.1C7.27907 5.1 7.09998 5.27908 7.09998 5.5C7.09998 5.72091 7.27907 5.9 7.49998 5.9H14.5C14.7209 5.9 14.9 5.72091 14.9 5.5C14.9 5.27908 14.7209 5.1 14.5 5.1H7.49998ZM7.1 7.5C7.1 7.27908 7.27909 7.1 7.5 7.1H14.5C14.7209 7.1 14.9 7.27908 14.9 7.5C14.9 7.72091 14.7209 7.9 14.5 7.9H7.5C7.27909 7.9 7.1 7.72091 7.1 7.5ZM7.49998 9.1C7.27907 9.1 7.09998 9.27908 7.09998 9.5C7.09998 9.72091 7.27907 9.9 7.49998 9.9H14.5C14.7209 9.9 14.9 9.72091 14.9 9.5C14.9 9.27908 14.7209 9.1 14.5 9.1H7.49998ZM7.09998 11.5C7.09998 11.2791 7.27907 11.1 7.49998 11.1H14.5C14.7209 11.1 14.9 11.2791 14.9 11.5C14.9 11.7209 14.7209 11.9 14.5 11.9H7.49998C7.27907 11.9 7.09998 11.7209 7.09998 11.5ZM2.5 9.25003L5 6.00003H0L2.5 9.25003Z"
    fill="currentColor"
  />
</svg>

<svg xmlns="http://www.w3.org/2000/svg" width="15" height="15" fill="none"><path fill="currentColor" fill-rule="evenodd" d="M7.5 3.1a.4.4 0 1 0 0 .8h7a.4.4 0 0 0 0-.8zm0 2a.4.4 0 1 0 0 .8h7a.4.4 0 0 0 0-.8zm-.4 2.4c0-.22.18-.4.4-.4h7a.4.4 0 0 1 0 .8h-7a.4.4 0 0 1-.4-.4m.4 1.6a.4.4 0 1 0 0 .8h7a.4.4 0 0 0 0-.8zm-.4 2.4c0-.22.18-.4.4-.4h7a.4.4 0 0 1 0 .8h-7a.4.4 0 0 1-.4-.4M2.5 9.25 5 6H0z" clip-rule="evenodd"/></svg>
